X: 2172
T: Auld Pipe, The
R: reel
M: 4/4
K: Adorian
|:A2A2 GAAB|e2 de aede|a2 ea gedB|A2A2 BGGB|
ABAG A2 AB|e2 de gede|a2 ea gedB|A2BG A2Ae:|
|:a2 ea gede|a2 ea gede|a2 ea gedB|A2A2 BGGB|
ABAG A2 AB|e2 de gede|a2 ea gedB|A2BG A2Ae:|

